X:1
T:Polonaise
T:Polonaise
T:F.Chopin, Op.53
C:F.Chopin, Op.53
%%score { ( 1 3 ) | ( 2 4 5 ) }
L:1/8
Q:1/4=120
M:3/4
K:Ab
V:1 treble nm="Piano" snm="Pno."
V:3 treble 
V:2 bass 
V:4 bass 
V:5 bass 
V:1
"^Maestoso" [G,E]2 z[K:bass]!p!!<(! ([=E,=A,]/[F,B,]/ [^F,=B,]/[G,C]/[^G,^C]/[A,=D]/ | %1
 .[_B,_E])!<)! z .[G,B,] z[Q:1/4=114]!p!!>(! ([A,_FA]2 | %2
 .[G,EG])!>)! z!p![Q:1/4=120]!<(! (_C/B,/_F,/E,/ C/B,/F,/E,/ | %3
 _C/B,/_F,/E,/ C/B,/F,/E,/ C/B,/F,/E,/)!<)! | %4
 [_F,A,_C_F]2 z!p!!<(! ([=F,B,]/[^F,=B,]/ [G,=C]/[A,D]/[=A,=D]/[_B,E]/ | %5
 .[_C_F])!<)! z .[_F,A,C] z[K:treble][Q:1/4=114]!p!!>(! ([DBd]2 | %6
 .[A_c])!>)! z[K:bass]!p![Q:1/4=120]!<(! (D/_C/_G,/_F,/ D/C/G,/F,/ | %7
 D/_C/_G,/_F,/ D/C/G,/F,/ D/C/G,/F,/)!<)! | %8
 [=F,=A,=C=F]2 z[K:treble]!<(! ([=A,=D]/[B,E]/ [=B,=E]/[CF]/[_DG]/[=D^G]/ | %9
 .[_E=A])!<)! z!mp!"_cresc." .[F,=A,CF] z ([CFc]2 | %10
 .[A,_B,=DFB]) z z!p!!<(! ([=B,=E]/[CF]/ [^C^F]/[DG]/[^D^G]/[E=A]/ | %11
 .[=F_B])!<)! z .[F,B,=DF] z ([FBf]2 | %12
!f! .[_DEGBe]) z!p![Q:1/4=114] ([df]/A/G/e/[Q:1/4=112] [df]/A/G/e/ | %13
[Q:1/4=110] [Bf]/G/E/e/[Q:1/4=108] [cf]/G/E/e/[Q:1/4=106] [df]/"_cresc."B/E/e/ | %14
[Q:1/4=104] [df]/B/E/e/[Q:1/4=102] [df]/B/E/e/[Q:1/4=100] [df]/B/E/e/ | %15
[Q:1/4=98] [df]/B/E/e/[Q:1/4=96] [df]/B/E/e/[Q:1/4=94] [df]/B/[Q:1/4=92]E/[Q:1/4=70]e/ | %16
[Q:1/4=92]!f!!>(! ([df]>)[ce]!>)!!mf! [ce]2) z ([Ac]/[Bd]/ | %17
!f!!>(! f/e/{/f}e/=d/!>)!!mf! [ce]2) z ([Ac]/[_B_d]/ | %18
[Q:1/4=88]!f!!>(! f/e/{/f}e/!>)!!mf!=d/!f!!>(! f/e/{/f}e/!>)!!mf!=d/[Q:1/4=84] [ce])!>(!(!arpeggio![E_B_g] | %19
 !arpeggio![E=Af]!>)![FAc][FBd])[Q:1/4=92]!f!!>(! (3(_G/_G,/!>)!G/!mf![F,F]D) | %20
!>(!{/_G} ([e_g]>[df]!>)! [df]2) z ([Bd]/[ce]/ | %21
!f!!>(! _g/f/{/g}f/=e/!>)!!mf! [df]2) z[Q:1/4=70]!f! ([=Gd=g]/[Aa]/[Q:1/4=88] | %22
[Q:1/4=80]!f!!>(! [cc']/[eg]/[cc']/)z/4([Bb]/4[Q:1/4=82] [Bb]/[ce]/[Bb]/)z/4([Aa]/4[Q:1/4=84] [Aa]/[Be]/[Aa]/)z/4([Gg]/4!>)! | %23
[Q:1/4=86]!mf!!<(! [Gg]/[B=d]/[Gg]/)z/4([Ff]/4[Q:1/4=88] [Ff]/[GB]/[Ff]/)z/4!<)!([Ee]/4[Q:1/4=84]!f!!>(! [D_d]/[FA]/[Q:1/4=80][Dd]/)z/4([Cc]/4!>)! | %24
!mf![Q:1/4=84]!<(! F2) (TGF/G/ TAG/A/ | %25
 =A/B/c/d/ .[C_Ac])!<)!!f!!>(! ([Af]/>[Ae]/ .[Ae]/)!>)!!f! (A/[Q:1/4=80]a/[Q:1/4=60]z/4[Q:1/4=80]g/4 | %26
[Q:1/4=84] [Ff]2) (G/Pg/[Ff]/[Gg]/) (A/Pa/[Gg]/[Aa]/) | %27
 ([=Ae=a]/[Bb]/[cgc']/[dd']/ .[c_ac']) [faf']/z/4[eae']/4 [eae']({/[ee']} [d=ad']/>[cc']/ | %28
 .[Bb])[Q:1/4=80] ([B,_GB]/>[Cc]/ [DFd][DEGd]/>[Cc]/ [B,FB][Q:1/4=76][A,B,EA]/>[_G,G]/ | %29
[Q:1/4=72] .[F,DF])[Q:1/2=210]"^\n"!<(![I:staff +1] (=A,,B,,C,D,[Q:1/2=220]E,F,G,=A,[Q:1/2=230]B,[I:staff -1]CDE[Q:1/2=240]FG=ABcdefg=a!<)! | %30
[Q:1/4=88] .b)"_cresc."{/c'} ([dgb]/[c^f=a]/ [dgb][cgc'] [Ac_a][EAe] | %31
[Q:1/4=84] [FAf][Aca][Q:1/4=80][DFBd][FAdf][Q:1/4=76][B,EAB][DEGBe]) | %32
!ff![Q:1/4=92]!>(! ([fd'f']>[ec'e']!>)!!f! [ec'e'])!>(!{/E} (TE{=DE}!f!A)!>)!!ff! ([cac']/[dbd']/ | %33
!ff! [fd'f']/)!>(!z/4([ec'e']/4[ec'e']/!>)![=d=b=d']/!f! [ec'e'])!>(!{/E} (TE{=DE}!f!A)!>)!!ff! ([cac']/[_d_b_d']/ | %34
!ff![Q:1/4=88]!>(! [fd'f']/[e-c'-e']/{/f'}[ec'e']/!>)!!f![=d=b=d']/)!ff!!>(! ([f_d'f']/[e-c'-e']/{/f'}[ec'e']/!>)!!f![db=d']/[Q:1/4=84] [ec'e'])(!arpeggio![e_b_g'] | %35
!>(! !arpeggio![e=af']!>)!!f!!arpeggio![cefc']!arpeggio![Bfd'])[Q:1/4=92]!ff!!>(! (3(_g/_G/!>)!g/[Ff][Dd])!f! | %36
!ff!!>(! ([_ge'_g']>!>)![fd'f']!f! [fd'f'])"^♭"!>(!{/F} (TF{=EF}!>)!!f!B)!ff! ([dbd']/[ec'e']/ | %37
!ff! [_ge'_g']/)!>(!z/4([fd'f']/4[fd'f']/!>)![=ec'=e']/!f! [fd'f'])[Q:1/4=88]"^♭"!>(!{/F} (TF{=EF}!f!B)!>)!!ff![Q:1/4=60]!8va(! ([=gd'=g']/[aa']/ | %38
[Q:1/4=80]!>(! [c'c'']/[e'g']/[c'c'']/)z/4([bb']/4[Q:1/4=82] [bb']/[c'e']/[bb']/)z/4([aa']/4[Q:1/4=84] [aa']/[be']/[aa']/)!8va)!z/4([gg']/4!>)! | %39
[Q:1/4=86]!f!!<(! [gg']/[b=d']/[gg']/)z/4([ff']/4[Q:1/4=88] [ff']/[gb]/[ff']/)z/4!<)!([ee']/4[Q:1/4=84]!ff!!>(! [d_d']/[fa]/[Q:1/4=80][dd']/)z/4([cc']/4!>)! | %40
!f![Q:1/4=84]!<(! F2) (TGF/G/ TAG/A/ | %41
 =A/B/c/d/!<)! .[C_Ac])!ff!!>(! ([Af]/>[Ae]/!f! .[Ae]/)!>)!!ff! (A/[Q:1/4=80]a/[Q:1/4=60]z/4[Q:1/4=80]g/4 | %42
[Q:1/4=84] [Ff]2) (G/Pg/[Ff]/[Gg]/) (A/Pa/[Gg]/[Aa]/) | %43
 ([=Ae=a]/[Bb]/[cgc']/[dd']/ .[c_ac']) [faf']/z/4[eae']/4 [eae']({/[ee']} [d=ad']/>[cc']/ | %44
 .[Bb])[Q:1/4=80] ([B_gb]/>[cc']/ [dfd'])([degd']/>[cc']/ [Bfb])[Q:1/4=76]([ABea]/>[_Gg]/ | %45
[Q:1/4=72] .[Fdf])[Q:1/2=210]!<(![I:staff +1] (=A,,B,,C,D,E,[Q:1/2=220]F,G,=A,B,[I:staff -1]C[Q:1/2=230]DEFG=A[Q:1/2=240]Bcdefg=abc'd'e'f'g'=a' | %46
[Q:1/4=88] .b')!<)!!8va(!{/c''} ([d'g'b']/[c'^f'=a']/ .[d'g'b'])([c'g'c''] [ac'_a']!8va)![eae'] | %47
[Q:1/4=80] .[faf']) [G,DE]{/[G,D]} !arpeggio![G,DEB]2 [A,CA] z | %48
[Q:1/4=88]!<(! .[cc']!mf! [Cc]/z/4([Cc]/4 [Dc])[Cc]/z/4([Cc]/4 [_Ec])[Cc]/z/4([Dc]/4 | %49
 [Fc])[Cc]/z/4([=Ec]/4 [Gc])[Cc]/z/4([Fc]/4 [Ac])[Cc]/z/4[^Fc]/4 | %50
!f! .[=EGc=e]!<)!!f! (!>![ec'=e']2 [=d=b=d']/[ec'e']/) [fd'f']!>(! ([ege']/>[dd']/!>)! | %51
 [=ec'=e'])!mf!!<(! (C/4=E/4G/4=B/4 c/4e/4g/4=b/4!8va(! c'/4e'/4g'/4c''/4!<)!!f! !>![_d'_d'']!>![=d'=d''] | %52
 .[e'e''])!8va)!!mf!!<(! [Ee]/z/4([Ee]/4 [_Fe])[Ee]/z/4([Ee]/4 [_Ge])[Ee]/z/4([Fe]/4 | %53
 [Ae])[Ee]/z/4([=Ge]/4 [Be])[Ee]/z/4([Ae]/4 [_ce])[Ee]/z/4[=Ae]/4 | %54
!f! .[GBeg]!<)!!f! (!>![ge'g']2 [^f=d'^f']/[ge'g']/) [a=f'a']!>(! ([gbg']/>[=ff']/ | %55
 .[ge'g'])!>)!!ff![Q:1/4=84]!>(! (g/>f/!f! e)!>)!!ff![Q:1/4=80]!>(! (G/>F/!f! E)!>)! z | %56
!f![Q:1/4=88]"^sostenuto" (F4 B,2 | C3) (C/>D/ !trill(!TD2 | C3) (C/>D/ !trill(!TD2 | %59
!<(! C=D/=E/ FG B/A/G/F/)!<)! |{FF} (f4 [B,B]2 | [Cc]3)!<(! (c/>d/{/D} !trill(!Td2!<)! | %62
 [Cc]3) (c/>d/{/D} !trill(!Td2 | %63
!<(! !trill(!T=d2({^cd)}[Q:1/4=80] !trill(!Te4)[Q:1/4=50]!<)![Q:1/4=72][Q:1/4=60] | %64
!ff![Q:1/4=92]!>(! ([fd'f']>[ec'e']!>)!!f! [ec'e'])!>(!{/E} (TE{=DE}!f!A)!>)!!ff! ([cac']/[dbd']/ | %65
!ff! [fd'f']/)!>(!z/4([ec'e']/4[ec'e']/!>)![=d=b=d']/!f! [ec'e'])!>(!{/E} (TE{=DE}!f!A)!>)!!ff! ([cac']/[_d_b_d']/ | %66
!ff![Q:1/4=88]!>(! [fd'f']/[e-c'-e']/{/f'}[ec'e']/!>)!!f![=d=b=d']/)!ff!!>(! ([f_d'f']/[e-c'-e']/{/f'}[ec'e']/!>)!!f![db=d']/[Q:1/4=84] [ec'e'])(!arpeggio![e_b_g'] | %67
!>(! !arpeggio![e=af']!>)!!f!!arpeggio![cfc']!arpeggio![Bfd'])!ff![Q:1/4=92]!>(! (3(_g/_G/!>)!g/[Ff][Dd])!f! | %68
!ff!!>(! ([_ge'_g']>!>)![fd'f']!f! [fd'f'])"^♭"!>(!{/F} (TF{=EF}!>)!!f!B)!ff! ([dbd']/[ec'e']/ | %69
!ff! [_ge'_g']/)!>(!z/4([fd'f']/4[fd'f']/!>)![=ec'=e']/!f! [fd'f'])[Q:1/4=88]"^♭"!>(!{/F} (TF{=EF}!f!B)!>)!!ff![Q:1/4=60]!8va(! ([=gd'=g']/[aa']/ | %70
[Q:1/4=80]!>(! [c'c'']/[e'g']/[c'c'']/)z/4([bb']/4[Q:1/4=82] [bb']/[c'e']/[bb']/)z/4([aa']/4[Q:1/4=84] [aa']/[be']/[aa']/)!8va)!z/4([gg']/4!>)! | %71
!f![Q:1/4=86]!<(! [gg']/[b=d']/[gg']/)z/4[Q:1/4=88]([ff']/4 [ff']/[gb]/[ff']/)z/4!<)!([ee']/4!ff![Q:1/4=84]!>(! [d_d']/[fa]/[Q:1/4=80][dd']/)z/4([cc']/4!>)! | %72
!f![Q:1/4=84]!<(! !>!F2) (TGF/G/ TAG/A/ | %73
 =A/B/c/d/!<)! .[C_Ac])!ff!!>(! ([Af]/>[Ae]/!f! .[Ae]/)!>)!!ff! (A/[Q:1/4=80]a/[Q:1/4=60]z/4[Q:1/4=80]g/4 | %74
!f![Q:1/4=84]!<(! [Ff]2) (G/Pg/[Ff]/[Gg]/) (A/Pa/[Gg]/[Aa]/) | %75
 ([=Ae=a]/[Bb]/[cgc']/[dd']/ .[c_ac'])!<)!!>(! [faf']/z/4[eae']/4!>)! [eae']!>(!({/[ee']} [d=ad']/>[cc']/!>)! | %76
 .[Bb])[Q:1/4=80] ([B_gb]/>[cc']/ [dfd'])([degd']/>[cc']/ [Bfb])[Q:1/4=76]([ABea]/>[_Gg]/ | %77
[Q:1/4=72] .[Fdf])[Q:1/2=210]!<(![I:staff +1] (=A,,B,,C,D,E,[Q:1/2=220]F,G,=A,B,[I:staff -1]C[Q:1/2=230]DEFG=A[Q:1/2=240]Bcdefg=abc'd'e'f'g'=a' | %78
[Q:1/4=88] .b')!<)!!8va(!{/c''} ([d'g'b']/[c'^f'=a']/ .[d'g'b'])([c'g'c''] [ac'_a']!8va)![eae'] | %79
[Q:1/4=80] .[faf'])!>(! [G,DE]{/[G,D]} !arpeggio![G,DEB]2 [A,CA]!>)! z || %80
[K:E][Q:1/4=84]!ff! !>![G,B,EG]2 !>![G,B,EG]2 !>![G,B,EG]2 | %81
 !>![G,B,EG]2 !>![G,B,EG]2 !>![G,B,EG]2 | %82
[Q:1/4=90] [G,B,EG]/[I:staff +1] .D,/.C,/.B,,/ .E,/.D,/.C,/.B,,/ .E,/.D,/.C,/.B,,/ | %83
 .E,/.D,/.C,/.B,,/ .E,/.D,/.C,/.B,,/ .E,/.D,/.C,/.B,,/ | %84
"^sotto voce"[I:staff -1] ([G,B,]4 [A,B,]>[A,B,] | [G,B,]>[G,E] [G,B,G]2 [A,B,F]2 | %86
 [G,B,]>[G,E] [G,G]) z/ ([A,D]/ [G,E][G,EG] | [B,GB].[CGc]/.[DGd]/ .[EGe].[B,GB] !>![GBg]2) | %88
 ([B,FAB]3 .[B,AB]/.[B,AB]/ .[B,AB].[B,AB] | [B,GB]>[EGe] [EGe]2)!pp! ([B,EG]2 | %90
 F3 [A,B,F]!p!!>(! .[A,B,G]/.[A,B,F]/.[A,B,E]/.[A,B,DF]/!>)! |!pp! [EG]2- [EG]>[GB] [GB]2) | %92
!p!!<(! ([G,B,]3 .[^^F,B,]/.[G,B,]/ [A,B,].[A,C]/.[A,D]/!<)! | %93
!p!"_cresc." [G,E]>[G,B,] [G,B,G]2 [A,B,F]2 | [G,B,]>[G,E] [G,B,G]) z/ ([A,D]/ [G,E][G,EG] | %95
 [B,GB]2 [CGc]/[DGd]/[EGe]/[FBf]/ [Geg]2 |!f! [^^FAd^^f]3)"_cresc." ([^A,F^A][DFd][Fdf] | %97
 [^A^^f^a]>)[dfd'] [dfd']>[^^Fdf] [Fdf].[^Bf^b] | %98
 !>![^A^^f^a]2 z .[^A,A]/.[A,A]/!ff! .[A,GA].[^EGA^e] | %99
 .[D^^Fd][K:bass]!<(! [D,=A,=B,D][D,A,B,D][D,A,B,D][D,A,B,D][D,A,B,D] | %100
 !>![E,G,E]!<)! z[K:treble] !>![G,B,EG]2 !>![G,B,EG]2 | !>![G,B,EG]2 !>![G,B,EG]2 !>![G,B,EG]2 | %102
 [G,B,EG]/[I:staff +1] .D,/.C,/.B,,/ .E,/.D,/.C,/.B,,/ .E,/.D,/.C,/.B,,/ | %103
 .E,/.D,/.C,/.B,,/ .E,/.D,/.C,/.B,,/ .E,/.D,/.C,/.B,,/ | %104
"^sotto voce"[I:staff -1] ([G,B,]4 [A,B,]>[A,B,] | [G,B,]>[G,E] [G,B,G]2 [A,B,F]2 | %106
 [G,B,]>[G,E] [G,G]) z/ ([A,D]/ [G,E][G,EG] | [B,GB].[CGc]/.[DGd]/ .[EGe].[B,GB] !>![GBg]2) | %108
 ([B,FAB]3 .[B,AB]/.[B,AB]/ .[B,AB].[B,AB] | [B,GB]>[EGe] [EGe]2)!p! ([B,EG]2 | %110
 F3 [A,B,F]!p!!>(! .[A,B,G]/.[A,B,F]/.[A,B,E]/.[A,B,DF]/!>)! | [EG]2- [EG]>[GB] [GB]2) | %112
!p!!<(! ([G,B,]3 .[^^F,B,]/.[G,B,]/ [A,B,].[A,C]/.[A,D]/!<)! | %113
!mp!"_cresc." [G,E]>[G,B,] [G,B,G]2 [A,B,F]2 | [G,B,]>[G,E] [G,B,G]) z/ ([A,D]/ [G,E][G,EG] | %115
 [B,GB]2 [CGc]/[DGd]/[EGe]/[FBf]/ [Geg]2 |!f! [^^FAd^^f]3)"_cresc." ([^A,F^A][DFd][Fdf] | %117
 [^A^^f^a]>)[dfd'] [dfd']>[^^Fdf] [Fdf].[^Bf^b] | %118
 !>![^A^^f^a]2 z .[^A,A]/.[A,A]/!ff! .[A,GA].[^EGA^e] |[Q:1/4=86] .[D^^Fd] || %120
[K:Ab]!mf!!<(! .[Ee]/.[Ee]/[Q:1/4=84] !>![_E_e].[Ee]/.[Ee]/[Q:1/4=80] !>![Ee].[Ee]/.[Ee]/!<)! | %121
[Q:1/4=84]!mf! (e2 B2 [C_Gc]).[Gf]/.[Ge]/ | (e/d/).d/.c/ (B2 c2 | B/A/).A/.G/ (F2 G2 | %124
 !>!P[CE])([=B,=D]/[CE]/ !>!P[_DF])[CE]/[DF]/ G2 | ([=dg]2 d2 =e2 | g/f/).f/._e/ (=d2 =e2 | %127
 g/f/).f/._e/ (e/=d/).d/.c/ (c/B/).B/.A/ | %128
!mf![Q:1/4=80] .G!>(!G/G/!>)![Q:1/4=78]!mf! .G!>(!G/G/!>)![Q:1/4=76] .[=B,=DG] (!>!=d- | %129
[Q:1/4=80] d/!p!c/=B/=A/ ^G/A/B/c/ ^c/=d/=g/=e/ | ^c/=d/^f/=e/ d/=c/=E/^F/"^♮" PG/F/G/^G/ | %131
 =A/^f/=e/=d/ ^c/f/[Q:1/4=76]g/=a/ =c'/_b/[Q:1/4=72]g/^c/ | %132
[Q:1/4=80] !>!=d/>=e/!>!d/>_e/[Q:1/4=78] !>!d/>=e/!>!d/>_e/[Q:1/4=76] !>!d/>=e/[Q:1/4=72]!>!d/>[Q:1/4=60]_e/) | %133
[Q:1/4=80] (=d/c/_B/=A/ ^G/A/B/c/ ^c/d/.g/.f/ | .=f/.=e/._e/.=d/ ^c/=c/=A/B/ PG/^F/G/A/ | %135
 B/b/=a/g/ a/g/f/e/ f/e/B/c/ | %136
[Q:1/4=76]!<(! !trill(!T=d2({^cd)}[Q:1/4=72] !trill(!Te2({=de)}[Q:1/4=68] !trill(!T=e2({=de)}!<)! | %137
[Q:1/4=80]!mp! f/_e/_d/c/ _B/c/d/e/ =e/f/_b/=a/ | _a/g/_g/f/ =e/_e/d/c/ PB/=A/B/c/ | %139
 d/d'/c'/b/ c'/b/a/_g/ a/g/d/e/ | %140
 (6:4:6f/_g/f/=e/f/g/[Q:1/4=76] (6:4:6f/g/f/e/f/g/[Q:1/4=72] (6:4:6f/g/f/e/f/g/ | %141
[Q:1/4=84] f/_e/d/c/ =B/c/d/e/[Q:1/4=80] =e/f/[Q:1/4=72]._b/z/4.=a/4 | %142
[Q:1/4=84] ._a/.g/._g/.f/ =e/_e/c/d/ PB/=A/B/d/ | !>!c/B/_A/G/ ^F/G/A/B/ =B/!>!c/=f/d/ | %144
 !>!c/_B/A/G/ ^F/G/[Q:1/4=80]!>!c/=B/[Q:1/4=76] _B/A/[Q:1/4=84]G/=F/ | %145
 =E/!>!c/B/A/"_dim." ^F/G/A/B/ =B/!>!c/=f/d/ | %146
 !>!c/_B/A/G/ ^F/G/[Q:1/4=80]!>!c/=B/[Q:1/4=76] _B/A/[Q:1/4=84]G/=F/ | %147
 =E/!>!c/B/A/"_dim." ^F/G/A/B/ =B/!>!c/_e/d/ | !>!c/_B/A/G/ ^F/G/A/B/ =B/!>!c/d/B/ | %149
 !>!c/B/_A/G/ ^F/G/A/B/ =B/!>!c/_e/d/ | !>!c/B/_A/G/ ^F/G/A/B/ =B/!>!c/d/B/ | %151
!pp! !>!c/B/_A/G/"_cresc." ^F/G/A/B/ A/G/=F/=E/ | ^D/=E/F/G/ _D/G/C/G/ =B,/C/D/_E/ | %153
[K:bass] D/C/_B,/A,/ G,/C/B,/_G,/ F,/C/B,/_F,/ | %154
[Q:1/4=80] E,/A,/=G,/E,/[Q:1/4=76] D,/G,/=F,/D,/[Q:1/4=72] C,/E,/[Q:1/4=68]B,,/E,/) | %155
[K:treble]!ff![Q:1/4=92]!>(! ([fd'f']>[ec'e']!>)!!f! [ec'e'])!>(!{/E} (TE{=DE}!f!A)!>)!!ff! ([cac']/[dbd']/ | %156
!ff! [fd'f']/)!>(!z/4([ec'e']/4[ec'e']/!>)![=d=b=d']/!f! [ec'e'])!>(!{/E} (TE{=DE}!f!A)!>)!!ff! ([cac']/[_d_b_d']/ | %157
!ff![Q:1/4=88]!>(! [fd'f']/[e-c'-e']/{/f'}[ec'e']/!>)!!f![=d=b=d']/)!ff!!>(! ([f_d'f']/[e-c'-e']/{/f'}[ec'e']/!>)!!f![db=d']/[Q:1/4=84] [ec'e'])(!arpeggio![e_b_g'] | %158
!>(! !arpeggio![e=af']!>)!!f!!arpeggio![cfc']!arpeggio![Bfd'])!ff!!>(! (3(_g/_G/!>)!g/[Ff][Dd])!f! | %159
!ff!!>(! ([_ge'_g']>!>)![fd'f']!f! [fd'f'])"^♭"!>(!{/F} (TF{=EF}!>)!!f!B)!ff! ([dbd']/[ec'e']/ | %160
!ff! [_ge'_g']/)!>(!z/4([fd'f']/4[fd'f']/!>)![=ec'=e']/!f! [fd'f'])[Q:1/4=88]"^♭"!>(!{/F} (TF{=EF}!f!B)!>)!!ff![Q:1/4=60]!8va(! ([=gd'=g']/[aa']/ | %161
[Q:1/4=80]!>(! [c'c'']/[e'g']/[c'c'']/)z/4([bb']/4[Q:1/4=82] [bb']/[c'e']/[bb']/)z/4([aa']/4[Q:1/4=84] [aa']/[be']/[aa']/)!8va)!z/4([gg']/4!>)! | %162
!f![Q:1/4=86]!<(! [gg']/[b=d']/[gg']/)z/4([ff']/4[Q:1/4=88] [ff']/[gb]/[ff']/)z/4!<)!([ee']/4!ff![Q:1/4=84]!>(! [d_d']/[fa]/[Q:1/4=80][dd']/)z/4([cc']/4!>)! | %163
!f![Q:1/4=84]!<(! !>!F2) (TGF/G/ TAG/A/ | %164
 =A/B/c/d/!<)! .[C_Ac])!ff!!>(! ([Af]/>[Ae]/!f! .[Ae]/)!>)!!ff! (A/[Q:1/4=80]a/[Q:1/4=60]z/4[Q:1/4=80]g/4 | %165
!f![Q:1/4=84]!<(! [Ff]2) (G/Pg/[Ff]/[Gg]/) (A/Pa/[Gg]/[Aa]/) | %166
 ([=Ae=a]/[Bb]/[cgc']/[dd']/ .[c_ac'])!<)!!ff!!>(! [faf']/z/4[eae']/4!>)!!f! [eae']!>(!({/[ee']} [d=ad']/>!f![cc']/!>)! | %167
!ff! .[Bb])[Q:1/4=80] ([B_gb]/>[cc']/ [dfd'])([degd']/>[cc']/[Q:1/4=76] [Bfb])[ABea]/>[_Gg]/ | %168
[Q:1/4=70] .[Fdf][Q:1/2=210]!<(![I:staff +1] (=A,,B,,C,D,E,[Q:1/2=220]F,G,=A,B,[I:staff -1]C[Q:1/2=230]DEFG=A[Q:1/2=240]Bcdefg=abc'd'e'f'g'=a' | %169
[Q:1/4=92] .b')!<)!!8va(!{/c''} ([d'g'b']/[c'^f'=a']/ .[d'g'b'])(!>![c'g'c'']!>![ac'_a']!8va)!!>![eae'] | %170
 !>![faf']!>![eae']!>![cec']!>![Aca]!>![FAf]!>![EGe] | %171
[Q:1/4=100] !wedge![CEc]) TE!f! (!>!=D(3F/!<(!A/_c/ (3=d/f/a/!8va(!(3_c'/=d'/=d''/!<)! | %172
 .[e'e''])!8va)! .[Beb]/.[Beb]/ .[Beb]([=Ae=a]/[Beb]/ [cec'])[Gdeg] | %173
[Q:1/4=104] !wedge![Aca] TE (!>!=D(3F/!<(!A/_c/ (3=d/f/a/!8va(!(3_c'/=d'/=d''/!<)! | %174
 .[e'e''])!8va)! .[Beb]/.[Beb]/ ([Beb]/[cec']/)([=Ae=a]/[Beb]/ [cec'])([Gdeg] | %175
!ff! [Acfa]>e [Ece]2) z ([cac']/[dbd']/ | %176
!ff!!>(! [fd'f']>!>)![ec'e']!f! [ec'e']2) z ([cac']/[dbd']/ | %177
!ff!!>(! [fd'f']>!>)!!f![ec'e'])!ff!!>(! ([fd'f']>!>)!!f![ec'e'])!ff!!>(! ([fd'f']>!>)!!f![ec'e']) | %178
!ff!!>(! ([fd'f']>!>)![ec'e']!f![Q:1/4=92] !>![ec'e']2!<(! .[fc'f']/4)z/4!8va(!([gc'g']/[ac'a']/[be'-b']/ | %179
[Q:1/4=104] [c'e'a'c'']2)!<)!!8va)! z .[=E,G,C=E]/.[E,G,CE]/ .[E,G,CE].[E,G,CE] | %180
 !>![=E,G,C=E] z !>![E,G,CE] z !>![_E,G,D_E] z | .[A,CA]2 z2 z2 |] %182
V:2
!ped! [E,,,E,,]2 z!ped-up! (^C,/D,/ ^D,/=E,/^E,/^F,/ | .=G,) z .[E,,B,,] z ([=D,_C]2 | %2
!ped! .[E,B,])!ped-up! z!ped! (A,,/G,,/=D,,/E,,/ A,,/G,,/D,,/E,,/ | %3
 A,,/G,,/=D,,/E,,/ A,,/G,,/D,,/E,,/ A,,/G,,/D,,/E,,/)!ped-up! | %4
!ped! [E,,A,,E,]2 z!ped-up! (=D,/^D,/ =E,/^E,/^F,/=G,/ | ._A,) z .[E,,_C,] z ([G,B,_F]2 | %6
!ped! .[A,_CF])!ped-up! z!ped! (B,,/A,,/E,,/A,,/ B,,/A,,/E,,/A,,/ | %7
 B,,/A,,/E,,/A,,/ B,,/A,,/E,,/A,,/ B,,/A,,/E,,/A,,/)!ped-up! | %8
!ped! [E,,=A,,E,]2 z!ped-up!!p! (^F,/G,/ ^G,/=A,/_B,/=B,/ | %9
 .C) z!ped! .[E,,E,] z [E,=A,E]2!ped-up! |!ped! .[E,,,E,,] z!ped-up! z (^G,/=A,/ ^A,/=B,/^B,/^C/ | %11
 .=D) z!ped! .[E,,E,] z [A,B,DA]2!ped-up! | %12
!ped! .[E,,,E,,] z!ped!!ped-up!!<(! .[B,,,B,,].[E,,E,]/.[F,,F,]/!ped-up!!ped! .[G,,G,]/.[A,,A,]/.[B,,B,]/.[C,C]/!ped-up!!<)! | %13
!ped! [D,D] z!ped-up!!ped! [E,,E,] z!ped-up!!ped! [G,G-]2 | G/D/B,/E,/ G/D/B,/E,/ G/D/B,/E,/ | %15
 G/D/B,/E,/ D/B,/E,/B,,/ G,/E,/B,,/!f!E,,/!ped-up! | %16
!ped! .[A,,,A,,] ([E,E][A,CA]) .[E,,E,].[A,,A,]!ped-up! ([E,,,E,,] | %17
!ped!.[A,,,A,,]) ([E,E][A,CA]) .[E,,E,].[A,,A,]!ped-up! ([E,,,E,,] | %18
!ped!.[A,,,A,,]) ([E,E][A,CA]) .[E,,E,].[A,,A,]!ped-up!!ped! !arpeggio![E,,B,,_G,]!ped-up!!ped! | %19
!ped! !arpeggio![F,,C,E,=A,]!mf!!arpeggio![C,F,A,E]!ped!!arpeggio![B,,F,B,D] ([_G,,,_G,,]!ped-up![F,,,F,,]) ([D,,D,] | %20
!ped!.[B,,,B,,]) ([F,F][B,DB]) .[F,,F,].[B,,B,]!ped-up! ([F,,,F,,] | %21
!ped!.[B,,,B,,]) ([F,F][B,B]) .[F,,F,].[B,,B,]!ped-up! ([B,,,B,,] | %22
!ped! .[E,,,E,,]).[DEG]!ped-up!!ped! .[E,,E,].[CE]!ped-up!!ped! .[E,,E,].[B,E]!ped-up! | %23
!ped! .[B,,,B,,].[A,B,=D]!ped-up!!ped! .[E,,E,].[G,B,]!ped-up!!ped! F,2!ped-up! | %24
!ped! !>![D,,D,][F,B,]!ped-up!!ped! !>![C,,C,][=E,B,C]!ped-up!!ped! !>![F,,,F,,][F,A,C]!ped-up! | %25
!ped! [E,,E,]([E,B,]!ped-up!!ped! .[A,,E,A,]) ([=B,=DF]/>[CE]/ .[CE]/)!ped-up! z/ [A,,A,] | %26
!ped! !>![D,,D,][F,B,]!ped-up!!ped! !>![C,,C,][B,C=E]!ped-up!!ped! !>![F,,,F,,][A,CF]!ped-up! | %27
!ped! [E,,E,][K:treble]([B,DEG]!ped-up!!ped! .[A,EA]) ([=B,=DA=B]/!ped-up!z/4[CEAc]/4 .[CEAc])!ped! !arpeggio![F,CE=A]!ped-up!!8vb(!!ped!!8vb)! | %28
[K:bass] !arpeggio![B,,F,D]!ped!!ped-up! !arpeggio![E,,B,,_G,]!ped-up!!ped!!arpeggio![B,,,F,,D,]!ped-up!!ped!!arpeggio![E,,,E,,]!ped-up!!ped!!arpeggio![B,,,F,,D,]!ped-up!!ped!!arpeggio![E,,B,,E,]!ped-up!!ped! | %29
 !arpeggio![B,,,F,,D,]!ped-up! (=A,,,B,,,C,,D,,E,,F,,G,,=A,,B,,C,D,E,F,G,=A,B,[I:staff -1]CDEFG=A | %30
!ped! .B)[I:staff +1] .[E,,,E,,].[E,,E,][E,E]!ped-up![F,CF][C,A,C] | %31
 [D,A,D][F,,F,]!ped![B,,F,B,][B,,,B,,]!ped-up!!ped![E,,E,][E,,,E,,]!ped-up! | %32
!ped! .[A,,,A,,] ([E,E][A,CA]) .[E,,E,].[A,,A,]!ped-up! ([E,,,E,,] | %33
!ped! .[A,,,A,,]) ([E,CE][A,CA]) .[E,,E,].[A,,A,]!ped-up! ([E,,,E,,] | %34
!ped!.[A,,,A,,]) ([E,CE][A,CA]) .[E,,E,].[A,,A,]!ped-up!!ped! !arpeggio![E,,B,,_G,]!ped-up!!ped! | %35
!ped! !arpeggio![F,,C,E,=A,]!arpeggio![C,F,A,E]!ped!!arpeggio![B,,F,B,D] ([_G,,,_G,,]!ped-up![F,,,F,,]) ([D,,D,] | %36
!ped!.[B,,,B,,]) ([F,F][B,DB]) .[F,,F,].[B,,B,]!ped-up! ([F,,,F,,] | %37
!ped! .[B,,,B,,]) ([F,DF][B,DB])!ped!!ped-up! .[F,,F,].[B,,B,]!ped-up! ([B,,,B,,] | %38
!ped!.[E,,,E,,])[K:treble] (!>!c/B/)!ped-up![K:bass]!ped! x[K:treble] (!>!B/A/)!ped-up![K:bass]!ped! x[K:treble] (!>!A/G/)!ped-up! | %39
[K:bass]!ped! x[K:treble] (!>!G/F/)!ped-up![K:bass]!ped! x[K:treble] (!>!F/E/)!ped-up![K:bass]!ped! x (!>!_D/C/)!ped-up! | %40
!ped! !>![D,,D,][F,B,]!ped-up!!ped! !>![C,,C,][=E,B,C]!ped-up!!ped! !>![F,,,F,,][F,A,C]!ped-up! | %41
!ped! [E,,E,]([E,B,]!ped-up!!ped! .[A,,E,A,]) ([=B,=DF]/>[CE]/ .[CE]/)!ped-up! z/ [A,,A,] | %42
!ped! !>![D,,D,][F,B,]!ped-up!!ped! !>![C,,C,][B,C=E]!ped-up!!ped! !>![F,,,F,,][A,CF]!ped-up! | %43
!ped! [E,,E,][K:treble]([B,DEG]!ped-up!!ped! .[A,EA]) ([=B,=DA=B]/!ped-up!z/4[CEAc]/4 .[CEAc])!ped! !arpeggio![F,CE=A]!ped-up!!8vb(!!ped!!8vb)! | %44
[K:bass] !arpeggio![B,,F,D]!ped!!ped-up! !arpeggio![E,B,_G]!ped-up!!ped!!arpeggio![B,,F,D]!ped-up!!ped!!arpeggio![E,,B,,_G,]!ped-up!!ped!!arpeggio![B,,,F,,D,]!ped-up!!ped!!arpeggio![E,,B,,G,]!ped-up! | %45
!ped! !arpeggio!.[B,,F,D]!ped-up! (=A,,,B,,,C,,D,,E,,F,,G,,=A,,B,,C,D,E,F,G,=A,B,[I:staff -1]CDEFG=ABcdefg=a | %46
!ped! .b)[I:staff +1] .[E,,,E,,].[E,E]!ped-up![K:treble]([EGce][Fcf][CAc] | %47
 .[DAd])[K:bass]!ped! [E,,E,]2 .[E,,,E,,]!ped-up!.[A,,,A,,] z | %48
!ped! .[C,,,C,,] [C,,C,]/z/4([C,,C,]/4!ped-up!!ped! [=E,,D,])[=E,,,E,,]/z/4([E,,C,]/4!ped-up!!ped! [F,,_E,])[F,,,F,,]/z/4([F,,D,]/4!ped-up! | %49
!ped! [G,,F,])[G,,,G,,]/z/4([G,,=E,]/4!ped-up!!ped! [A,,G,])[A,,,A,,]/z/4([A,,F,]/4!ped-up!!ped! [A,,A,])[A,,,A,,]/z/4[A,,^F,]/4!ped-up! | %50
!ped! .[G,,G,][K:treble].[G,G]/.[G,G]/!ped-up!!>(! ([=A,=A]/[G,G]/).[G,G]/!>)!.[G,G]/!ped! .[G,G]!>(! [=DFG=B]!ped-up!!>)! | %51
[CGc][K:bass]!ped! C,/4=E,/4G,/4=B,/4!ped-up![K:treble]!ped! C/4=E/4G/4=B/4!ped-up!!ped! c/C/!ped-up! !>![_D_d]!>![=D=d] | %52
!ped! .[Ee][K:bass] [E,,E,]/z/4([E,,E,]/4!ped-up!!ped! [G,,_F,])[G,,,G,,]/z/4([G,,E,]/4!ped-up!!ped! [A,,_G,])[A,,,A,,]/z/4([A,,F,]/4!ped-up! | %53
!ped! [B,,A,])[B,,,B,,]/z/4([B,,=G,]/4!ped-up!!ped! [_C,B,])[_C,,C,]/z/4([C,A,]/4!ped-up!!ped! [C,_C])[C,,C,]/z/4[C,=A,]/4!ped-up! | %54
!ped! .[B,,B,][K:treble].[B,B]/.[B,B]/!ped-up!!>(! ([Cc]/[B,B]/).[B,B]/.[B,B]/!>)! .[B,B]!ped! (!arpeggio![B,FA=d] | %55
.[EBe])!ped-up![K:bass] [E,_CE][E,B,E] [E,,_C,E,]!ped![E,,B,,E,] .[E,,,E,,]!ped-up! | %56
!ped! [D,,,D,,][F,G,]/[F,G,]/ [F,G,][F,G,] [F,G,][F,G,]!ped-up! | %57
!ped! C,4!ped-up!!ped! x2!ped-up! |!ped! C,4!ped-up!!ped! x2!ped-up! | %59
!ped! x4!ped-up!!ped! F,2!ped-up! | %60
!ped! [D,,D,][G,B,F]/[G,B,F]/ [G,B,F][G,B,F] [G,B,F][G,B,F]!ped-up! | %61
!ped! [C,,C,][G,=E]/[G,E]/ [G,E][G,E]!ped-up!!ped! [B,,,B,,][F,A,F]!ped-up! | %62
!ped! [C,,C,][G,=E]/[G,E]/ [G,E][G,E]!ped-up!!ped! [B,,,B,,][F,A,F]!ped-up! | %63
 [B,,,B,,][A,B,=DA] [E,,,E,,][G,B,_DE][K:treble][B,_DEG][DEG_d] | %64
[K:bass]!ped! .[A,,,A,,] ([E,E][A,CA]) .[E,,E,].[A,,A,]!ped-up! ([E,,,E,,] | %65
!ped! .[A,,,A,,]) ([E,CE][A,CA]) .[E,,E,].[A,,A,]!ped-up! ([E,,,E,,] | %66
!ped!.[A,,,A,,]) ([E,CE][A,CA]) .[E,,E,].[A,,A,]!ped-up!!ped! !arpeggio![E,,B,,_G,]!ped-up!!ped! | %67
!ped! !arpeggio![F,,C,E,=A,]!arpeggio![C,F,A,E]!ped!!arpeggio![B,,F,B,D] ([_G,,,_G,,]!ped-up![F,,,F,,]) ([D,,D,] | %68
!ped!.[B,,,B,,]) ([F,F][B,DB]) .[F,,F,].[B,,B,]!ped-up! ([F,,,F,,] | %69
!ped! .[B,,,B,,]) ([F,DF][B,DB])!ped!!ped-up! .[F,,F,].[B,,B,]!ped-up! ([B,,,B,,] | %70
!ped!.[E,,,E,,])[K:treble] (!>!c/B/)!ped-up![K:bass]!ped! x[K:treble] (!>!B/A/)!ped-up![K:bass]!ped! x[K:treble] (!>!A/G/)!ped-up! | %71
[K:bass]!ped! x[K:treble] (!>!G/F/)!ped-up![K:bass]!ped! x[K:treble] (!>!F/E/)!ped-up![K:bass]!ped! x (!>!_D/C/)!ped-up! | %72
!ped! !>![D,,D,][F,B,]!ped-up!!ped! !>![C,,C,][=E,B,C]!ped-up!!ped! !>![F,,,F,,][F,A,C]!ped-up! | %73
!ped! [E,,E,]([E,B,]!ped-up!!ped! .[A,,E,A,]) ([=B,=DF]/>[CE]/ .[CE]/)!ped-up! z/ [A,,A,] | %74
!ped! !>![D,,D,][F,B,]!ped-up!!ped! !>![C,,C,][B,C=E]!ped-up!!ped! !>![F,,,F,,][A,CF]!ped-up! | %75
!ped! [E,,E,][K:treble]([B,DEG]!ped-up!!ped! .[A,EA]) ([=B,=DA=B]/!ped-up!z/4[CEAc]/4 .[CEAc])!ped! !arpeggio![F,CE=A]!ped-up!!8vb(!!ped!!8vb)! | %76
[K:bass] !arpeggio![B,,F,D]!ped-up!!ped! !arpeggio![E,B,_G]!ped-up!!ped!!arpeggio![B,,F,D]!ped-up!!ped!!arpeggio![E,,B,,_G,]!ped-up!!ped!!arpeggio![B,,,F,,D,]!ped-up!!ped!!arpeggio![E,,B,,G,]!ped-up!!ped! | %77
 !arpeggio![B,,F,D]!ped-up! (=A,,,B,,,C,,D,,E,,F,,G,,=A,,B,,C,D,E,F,G,=A,B,[I:staff -1]CDEFG=ABcdefg=a | %78
!ped! .b)[I:staff +1] .[E,,,E,,].[E,E]!ped-up![K:treble]([EGce][Fcf][CAc] | %79
 .[DAd])[K:bass]!ped! [E,,E,]2 .[E,,,E,,]!ped-up!.[A,,,A,,] z || %80
[K:E]!ped! [E,,B,,E,]2 [E,,B,,E,]2 [E,,B,,E,]2 | [E,,B,,E,]2 [E,,B,,E,]2 [E,,B,,E,]2 | %82
 [E,,B,,E,]/!ped-up!!pp! .D,,/.C,,/.B,,,/ .E,,/.D,,/.C,,/.B,,,/ .E,,/.D,,/.C,,/.B,,,/ | %83
 .E,,/.D,,/.C,,/.B,,,/ .E,,/.D,,/.C,,/.B,,,/ .E,,/.D,,/.C,,/.B,,,/ | %84
"_sempre staccato" .[E,,E,]/.[D,,D,]/.[C,,C,]/.[B,,,B,,]/ .[E,,E,]/.[D,,D,]/.[C,,C,]/.[B,,,B,,]/ .[E,,E,]/.[D,,D,]/.[C,,C,]/.[B,,,B,,]/ | %85
 .[E,,E,]/.[D,,D,]/.[C,,C,]/.[B,,,B,,]/ .[E,,E,]/.[D,,D,]/.[C,,C,]/.[B,,,B,,]/ .[E,,E,]/.[D,,D,]/.[C,,C,]/.[B,,,B,,]/ | %86
 .[E,,E,]/.[D,,D,]/.[C,,C,]/.[B,,,B,,]/ .[E,,E,]/.[D,,D,]/.[C,,C,]/.[B,,,B,,]/ .[E,,E,]/.[D,,D,]/.[C,,C,]/.[B,,,B,,]/ | %87
 .[E,,E,]/.[D,,D,]/.[C,,C,]/.[B,,,B,,]/ .[E,,E,]/.[D,,D,]/.[C,,C,]/.[B,,,B,,]/ .[E,,E,]/.[D,,D,]/.[C,,C,]/.[B,,,B,,]/ | %88
 .[E,,E,]/.[D,,D,]/.[C,,C,]/.[B,,,B,,]/ .[E,,E,]/.[D,,D,]/.[C,,C,]/.[B,,,B,,]/ .[E,,E,]/.[D,,D,]/.[C,,C,]/.[B,,,B,,]/ | %89
 .[E,,E,]/.[D,,D,]/.[C,,C,]/.[B,,,B,,]/ .[E,,E,]/.[D,,D,]/.[C,,C,]/.[B,,,B,,]/ .[E,,E,]/.[D,,D,]/.[C,,C,]/.[B,,,B,,]/ | %90
 .[E,,E,]/.[D,,D,]/.[C,,C,]/.[B,,,B,,]/ .[E,,E,]/.[D,,D,]/.[C,,C,]/.[B,,,B,,]/ .[E,,E,]/.[D,,D,]/.[C,,C,]/.[B,,,B,,]/ | %91
 .[E,,E,]/.[D,,D,]/.[C,,C,]/.[B,,,B,,]/!<(! .[E,,E,]/.[D,,D,]/.[C,,C,]/.[B,,,B,,]/ .[E,,E,]/!<)!.[D,,D,]/.[C,,C,]/.[B,,,B,,]/ | %92
"^poco" .[E,,E,]/.[D,,D,]/.[C,,C,]/.[B,,,B,,]/ .[E,,E,]/.[D,,D,]/"^a".[C,,C,]/.[B,,,B,,]/ .[E,,E,]/.[D,,D,]/"^poco".[C,,C,]/.[B,,,B,,]/ | %93
 .[E,,E,]/.[D,,D,]/.[C,,C,]/.[B,,,B,,]/ .[E,,E,]/.[D,,D,]/.[C,,C,]/.[B,,,B,,]/ .[E,,E,]/.[D,,D,]/.[C,,C,]/.[B,,,B,,]/ | %94
 .[E,,E,]/.[D,,D,]/.[C,,C,]/.[B,,,B,,]/ .[E,,E,]/.[D,,D,]/.[C,,C,]/.[B,,,B,,]/ .[E,,E,]/.[D,,D,]/.[C,,C,]/.[B,,,B,,]/ | %95
!ped! .[E,,E,]/.[D,,D,]/.[C,,C,]/.[B,,,B,,]/!ped-up!!ped! .[E,,E,]/.[D,,D,]/.[C,,C,]/.[B,,,B,,]/!ped-up!!ped! .[E,,E,]/.[D,,D,]/.[E,,E,]/.[^^C,,^^C,]/!ped-up! | %96
!ped! .[D,,D,]/.[^^C,,^^C,]/.[^B,,,^B,,]/.[^A,,,^A,,]/!ped-up!!ped! .[D,,D,]/.[C,,C,]/.[B,,,B,,]/.[A,,,A,,]/!ped-up!!ped! .[D,,D,]/.[C,,C,]/.[B,,,B,,]/.[A,,,A,,]/!ped-up! | %97
!ped! .[D,,D,]/.[^^C,,^^C,]/.[^B,,,^B,,]/.[^A,,,^A,,]/!ped-up!!ped! .[D,,D,]/.[C,,C,]/.[B,,,B,,]/.[A,,,A,,]/!ped-up!!ped! .[D,,D,]/.[C,,C,]/.[B,,,B,,]/.[A,,,A,,]/!ped-up! | %98
!ped! .[D,,D,]/.[^^C,,^^C,]/.[^B,,,^B,,]/.[^A,,,^A,,]/!ped-up!!ped! .[D,,D,]/.[C,,C,]/.[B,,,B,,]/.[A,,,A,,]/!ped-up!!ped! .[D,,D,]/.[C,,C,]/.[B,,,B,,]/.[A,,,A,,]/!ped-up! | %99
 .[D,,D,]!ped! [B,,,F,,B,,][B,,,F,,B,,][B,,,F,,B,,][B,,,F,,B,,][B,,,F,,B,,]!ped-up! | %100
!ped! [E,,,E,,] z [E,,B,,E,]2 [E,,B,,E,]2 | [E,,B,,E,]2 [E,,B,,E,]2 [E,,B,,E,]2 | %102
 [E,,B,,E,]/!ped-up!!pp! .D,,/.C,,/.B,,,/ .E,,/.D,,/.C,,/.B,,,/ .E,,/.D,,/.C,,/.B,,,/ | %103
 .E,,/.D,,/.C,,/.B,,,/ .E,,/.D,,/.C,,/.B,,,/ .E,,/.D,,/.C,,/.B,,,/ | %104
"_sempre staccato" .[E,,E,]/.[D,,D,]/.[C,,C,]/.[B,,,B,,]/ .[E,,E,]/.[D,,D,]/.[C,,C,]/.[B,,,B,,]/ .[E,,E,]/.[D,,D,]/.[C,,C,]/.[B,,,B,,]/ | %105
 .[E,,E,]/.[D,,D,]/.[C,,C,]/.[B,,,B,,]/ .[E,,E,]/.[D,,D,]/.[C,,C,]/.[B,,,B,,]/ .[E,,E,]/.[D,,D,]/.[C,,C,]/.[B,,,B,,]/ | %106
 .[E,,E,]/.[D,,D,]/.[C,,C,]/.[B,,,B,,]/ .[E,,E,]/.[D,,D,]/.[C,,C,]/.[B,,,B,,]/ .[E,,E,]/.[D,,D,]/.[C,,C,]/.[B,,,B,,]/ | %107
 .[E,,E,]/.[D,,D,]/.[C,,C,]/.[B,,,B,,]/ .[E,,E,]/.[D,,D,]/.[C,,C,]/.[B,,,B,,]/ .[E,,E,]/.[D,,D,]/.[C,,C,]/.[B,,,B,,]/ | %108
 .[E,,E,]/.[D,,D,]/.[C,,C,]/.[B,,,B,,]/ .[E,,E,]/.[D,,D,]/.[C,,C,]/.[B,,,B,,]/ .[E,,E,]/.[D,,D,]/.[C,,C,]/.[B,,,B,,]/ | %109
 .[E,,E,]/.[D,,D,]/.[C,,C,]/.[B,,,B,,]/ .[E,,E,]/.[D,,D,]/.[C,,C,]/.[B,,,B,,]/ .[E,,E,]/.[D,,D,]/.[C,,C,]/.[B,,,B,,]/ | %110
 .[E,,E,]/.[D,,D,]/.[C,,C,]/.[B,,,B,,]/ .[E,,E,]/.[D,,D,]/.[C,,C,]/.[B,,,B,,]/ .[E,,E,]/.[D,,D,]/.[C,,C,]/.[B,,,B,,]/ | %111
 .[E,,E,]/.[D,,D,]/.[C,,C,]/.[B,,,B,,]/!<(! .[E,,E,]/.[D,,D,]/.[C,,C,]/.[B,,,B,,]/ .[E,,E,]/!<)!.[D,,D,]/.[C,,C,]/.[B,,,B,,]/ | %112
"^poco" .[E,,E,]/.[D,,D,]/.[C,,C,]/.[B,,,B,,]/ .[E,,E,]/.[D,,D,]/"^a".[C,,C,]/.[B,,,B,,]/ .[E,,E,]/.[D,,D,]/"^poco".[C,,C,]/.[B,,,B,,]/ | %113
 .[E,,E,]/.[D,,D,]/.[C,,C,]/.[B,,,B,,]/ .[E,,E,]/.[D,,D,]/.[C,,C,]/.[B,,,B,,]/ .[E,,E,]/.[D,,D,]/.[C,,C,]/.[B,,,B,,]/ | %114
 .[E,,E,]/.[D,,D,]/.[C,,C,]/.[B,,,B,,]/ .[E,,E,]/.[D,,D,]/.[C,,C,]/.[B,,,B,,]/ .[E,,E,]/.[D,,D,]/.[C,,C,]/.[B,,,B,,]/ | %115
!ped! .[E,,E,]/.[D,,D,]/.[C,,C,]/.[B,,,B,,]/!ped-up!!ped! .[E,,E,]/.[D,,D,]/.[C,,C,]/.[B,,,B,,]/!ped-up!!ped! .[E,,E,]/.[D,,D,]/.[E,,E,]/.[^^C,,^^C,]/!ped-up! | %116
!ped! .[D,,D,]/.[^^C,,^^C,]/.[^B,,,^B,,]/.[^A,,,^A,,]/!ped-up!!ped! .[D,,D,]/.[C,,C,]/.[B,,,B,,]/.[A,,,A,,]/!ped-up!!ped! .[D,,D,]/.[C,,C,]/.[B,,,B,,]/.[A,,,A,,]/!ped-up! | %117
!ped! .[D,,D,]/.[^^C,,^^C,]/.[^B,,,^B,,]/.[^A,,,^A,,]/!ped-up!!ped! .[D,,D,]/.[C,,C,]/.[B,,,B,,]/.[A,,,A,,]/!ped-up!!ped! .[D,,D,]/.[C,,C,]/.[B,,,B,,]/.[A,,,A,,]/!ped-up! | %118
!ped! .[D,,D,]/.[^^C,,^^C,]/.[^B,,,^B,,]/.[^A,,,^A,,]/!ped-up!!ped! .[D,,D,]/.[C,,C,]/.[B,,,B,,]/.[A,,,A,,]/!ped-up!!ped! .[D,,D,]/.[C,,C,]/.[B,,,B,,]/.[A,,,A,,]/!ped-up! | %119
!ped! .[D,,D,] || %120
[K:Ab] .[E,,E,]/.[E,,E,]/!ped-up!!ped! !>![=E,,=E,].[E,,E,]/.[E,,E,]/!ped-up!!ped! !>![F,,F,].[F,,F,]/.[F,,F,]/!ped-up! | %121
!ped! !>![_G,,_G,].[G,D]/.[G,D]/ !>![G,D].[G,D]/.[G,D]/!ped-up!!ped! !>![A,,E,A,].[E,A,C]/.[E,A,C]/!ped-up! | %122
!ped! !>![D,C].[D,A,D]/!ped-up!.[D,A,D]/!ped! !>![D,=G,D].[D,G,D]/.[D,G,D]/!ped-up!!ped! !>![C,G,B,].[C,G,B,]/.[C,G,B,]/!ped-up! | %123
!ped! !>![F,A,].[F,A,]/.[E,A,]/!ped-up!!ped! !>![=D,A,].[D,A,]/.[D,A,]/!ped-up!!ped! !>![G,,D,G,].[G,,D,G,]/.[G,,D,G,]/!ped-up! | %124
!ped! !>![C,G,][C,G,]/[C,G,]/!ped-up!!ped! !>![_B,,A,][B,,A,]/[B,,A,]/!ped-up!!ped! !>![E,,B,,E,].[E,,B,,E,]/.[E,,B,,E,]/!ped-up! | %125
 [=B,,,=B,,][B,,G,=B,]/[B,,G,B,]/ [B,,G,B,][B,,G,B,]/[B,,G,B,]/ [C,C][C,G,C]/[C,G,C]/ | %126
!ped! !>![F,C=E].[F,CF]/!ped-up!.[F,CF]/!ped! !>![F,C=D].[F,CD]/.[F,CD]/!ped-up!!ped! !>![G,C=E].[G,CE]/.[G,CE]/!ped-up! | %127
!ped! !>![A,C=E].[A,CF]/!ped-up!.[A,CF]/!ped! !>![F,CF].[F,C]/.[F,C]/!ped-up!!ped! !>![=D,A,C].[D,G,C]/.[D,F,C]/!ped-up! | %128
!ped! .[G,,=D,G,][G,,G,]/!ped-up![G,,G,]/ .[G,,D,G,][G,,G,]/[G,,G,]/ [G,,D,G,]!ped! !>!=D- | %129
D =D[^F,C][=D,D]!ped-up![G,=B,][D,D] |!ped! .=D,, [=D,=D][=A,C][D,D]!ped-up![G,=B,][D,D] | %131
 [^F,=A,][=D,=D]!ped! [G,_B,] [D,D]2 [D,D]!ped-up! | [^F,=A,][=D,=D] [G,_B,][D,D] [^G,=B,][D,D] | %133
!ped! [=A,C] [=D,=D]2 [D,D]!ped-up![G,_B,][D,D] | %134
!ped! .=D,, ([=D,=D][^F,C][D,D]!ped-up![G,B,][D,D] | %135
!ped! [G,B,] !>![=D,E]2 [D,E] [G,B,][D,E])!ped-up! | %136
!ped! ([^F,=A,=D]=D,)!ped-up!!ped! ([G,B,E]_D,)!ped-up!!ped! ([G,B,=E]C,)!ped-up! | %137
!ped! .F,, (!>![F,F]2 [F,F]!ped-up![B,D][F,F]) |!ped! .F,,, ([F,F][=A,_E][F,F]!ped-up![B,D][F,F] | %139
!ped! [B,D] !>![F,_G]2 [F,G][B,D]!ped-up![F,G] | [=A,C][F,F][B,D][F,F][=B,=D][F,F] | %141
!ped! [CE] !>![F,F]2 [F,F]!ped-up![B,D][F,F]) |!ped! .F,,, ([F,F][=A,_E][F,F]!ped-up![B,D][F,F]) | %143
!ped! .F,, ([C,C]2 [C,C]!ped-up![F,A,][C,C]) | %144
!ped! .E,, [C,C]2 [C,C]!ped-up!!ped! .D,,[D,C]!ped-up! | %145
!ped! .C,, ([C,C]2 [C,C]!ped-up![F,A,][C,C]) | %146
!ped! .E,, [C,C]2 [C,C]!ped-up!!ped! .D,,[D,C]!ped-up! | %147
!ped! .C,, ([C,C]2 [C,C]!ped-up![F,A,][C,C] | %148
!ped! [E,G,] [C,C]2 [C,C]!ped-up!!ped![D,F,][C,C])!ped-up! | %149
!ped! =E, [C,C]2 [C,C]!ped-up!!ped![F,A,][C,C]!ped-up! | %150
!ped! [_E,G,] [C,C]2 [C,C]!ped-up![D,F,][C,C]- | [C,=E,C] z ^F,/G,/A,/B,/ A,/G,/=F,/=E,/ | %152
 ^D,/=E,/F,/G,/ _D,/G,/C,/G,/ =B,,/C,/D,/_E,/ | %153
[K:bass] D,/C,/B,,/A,,/ G,,/C,/B,,/_G,,/ F,,/C,/B,,/_F,,/ | %154
 E,,/A,,/G,,/E,,/ D,,/G,,/F,,/D,,/ C,,/E,,/B,,,/E,,/ | %155
[K:bass]!ped! .[A,,,A,,] ([E,E][A,CA]) .[E,,E,].[A,,A,]!ped-up! ([E,,,E,,] | %156
!ped! .[A,,,A,,]) ([E,CE][A,CA]) .[E,,E,].[A,,A,]!ped-up! ([E,,,E,,] | %157
!ped! .[A,,,A,,]) ([E,CE][A,CA]) .[E,,E,].[A,,A,]!ped-up!!ped! !arpeggio![E,,B,,_G,]!ped-up!!ped! | %158
 !arpeggio![F,,C,E,=A,]!arpeggio![C,F,A,E]!ped-up!!ped!!arpeggio![B,,F,B,D] ([_G,,,_G,,]!ped-up![F,,,F,,]) ([D,,D,] | %159
!ped!.[B,,,B,,]) ([F,F][B,DB]) .[F,,F,].[B,,B,]!ped-up! ([F,,,F,,] | %160
!ped! .[B,,,B,,]) ([F,DF][B,DB])!ped!!ped-up! .[F,,F,].[B,,B,]!ped-up! ([B,,,B,,] | %161
!ped!.[E,,,E,,])[K:treble] (!>!c/B/)!ped-up![K:bass]!ped! x[K:treble] (!>!B/A/)!ped-up![K:bass]!ped! x[K:treble] (!>!A/G/)!ped-up! | %162
[K:bass]!ped! x[K:treble] (!>!G/F/)!ped-up![K:bass]!ped! x[K:treble] (!>!F/E/)!ped-up![K:bass]!ped! x (!>!_D/C/)!ped-up! | %163
!ped! !>![D,,D,][F,B,]!ped-up!!ped! !>![C,,C,][=E,B,C]!ped-up!!ped! !>![F,,,F,,][F,A,C]!ped-up! | %164
!ped! [E,,E,]([E,B,]!ped-up!!ped! .[A,,E,A,]) ([=B,=DF]/>[CE]/ .[CE]/)!ped-up! z/ [A,,A,] | %165
!ped! !>![D,,D,][F,B,]!ped-up!!ped! !>![C,,C,][B,C=E]!ped-up!!ped! !>![F,,,F,,][A,CF]!ped-up! | %166
!ped! [E,,E,][K:treble]([B,DEG]!ped-up!!ped! .[A,EA]) ([=B,=DA=B]/!ped-up!z/4[CEAc]/4 .[CEAc])!ped! !arpeggio![F,CE=A]!ped-up!!ped!!8vb(!!8vb)! | %167
[K:bass] !arpeggio![B,,F,D]!ped-up!!ped! !arpeggio![E,B,_G]!ped-up!!ped!!arpeggio![B,,F,D]!ped-up!!ped!!arpeggio![E,,B,,_G,]!ped-up!!ped!!arpeggio![B,,,F,,D,]!ped-up!!ped!!arpeggio![E,,B,,G,]!ped-up!!ped! | %168
 !arpeggio![B,,F,D]!ped-up! (=A,,,B,,,C,,D,,E,,F,,G,,=A,,B,,C,D,E,F,G,=A,B,[I:staff -1]CDEFG=ABcdefg=a | %169
!ped! .b)[I:staff +1] .[E,,,E,,].[E,E]!ped-up![K:treble]([EGce][Fcf][CAc] | %170
 [DAd][CAc][A,EA][K:bass] [F,F][D,A,D][E,B,D] | %171
"^sempre"!ped! !wedge![A,,,A,,]) ([E,A,C]!ped-up!!ped![F,A,_C] .[F,,F,]).[F,,,F,,]!ped-up!([_F,,,_F,,] | %172
!ped! .[E,,,E,,])[K:treble] .[B,DEG]/.[B,DEG]/ .[B,DEG]!ped-up![B,DE^F]/[B,DEG]/ [B,DE_A][B,DEB] | %173
[K:bass]!ped! !wedge![A,,A,] ([E,A,C]!ped-up!!ped![F,A,_C] .[F,,F,]).[F,,,F,,]!ped-up!([_F,,,_F,,] | %174
!ped! .[E,,,E,,])[K:treble] .[B,DEG]/.[B,DEG]/ ([B,DEG]/[B,DEA]/)!ped-up![B,DE^F]/[B,DEG]/ [B,DE_A][B,DEB] | %175
[K:bass]!ped! .[A,,,A,,].[E,,E,] .[A,,A,].[E,E][K:treble] .[A,A].[Ee]!ped-up! | %176
[K:bass]!ped! .[A,,,A,,].[E,,E,] .[A,,A,].[E,E][K:treble] .[A,A].[Ee]!ped-up! | %177
[K:bass]!ped! .[A,,,A,,].[E,,E,] .[A,,A,].[E,E] .[A,A].[E,E] | %178
 .[A,,A,].[E,,E,]!ped-up! .[A,,,A,,]/.[G,,,G,,]/.[F,,,F,,]/.[E,,,E,,]/ .[A,,,A,,]/.[G,,,G,,]/.[F,,,F,,]/.[E,,,E,,]/ | %179
 .[A,,,A,,]2 z!ped! .[C,,G,,C,]/.[C,,G,,C,]/ .[C,,G,,C,].[C,,G,,C,] | %180
 [C,,G,,C,]!ped-up! z!ped! [C,,G,,C,]!ped-up! z!ped! !>![E,,B,,]!ped-up! z | %181
!ped! .[A,,,A,,]2 z2!ped-up! z2 |] %182
V:3
 x3[K:bass] x3 | x6 | x6 | x6 | x6 | x4[K:treble] x2 | x2[K:bass] x4 | x6 | x3[K:treble] x3 | x6 | %10
 x6 | x6 | x6 | x6 | x6 | x6 | x6 | d/c=B/ x4 | d/c=B/ _d/cB/ x7/8!f! x/8 x7/8 x/8 | %19
 x4 x3/2!f! !>!x/ | x3/2 x/ x4 | e/dc/ x4 | x6 | x6 | %24
 x2 (5:4:5x/4x/4x/4x/4x/4 x (5:4:5x/4x/4x/4x/4x/4 x | [DG][DG] x2 x/ !>!Az/4G/4 | %26
 x2 x/ (3x/4x/4x/4 x x/ (3x/4x/4x/4 x | x4 .x3/4 x/4 x3/4 x/4 | x6 | x23 | x6 | x6 | %32
 x2 x3/4!ff! x/4(5:4:5x/4x/4x/4x/4x/4 x2 | x2 x3/4!ff! x/4(5:4:5x/4x/4x/4x/4x/4 x2 | %34
 x4 x7/8!ff! x/16x/16 x7/8 x/16x/16 | x7/8 x/16x/16 x7/8 x/16x/16 x4 | %36
 x2 x3/4!ff! x/4(5:4:5x/4x/4x/4x/4x/4 x2 | x2 x3/4!ff! x/4(5:4:5x/4x/4x/4x/4x/4 x2!8va(! | %38
 x11/2!8va)! x/ | x6 | x2 (5:4:5x/4x/4x/4x/4x/4 x (5:4:5x/4x/4x/4x/4x/4 x | %41
 [DG][DG] x2 x/ !>!Az/4G/4 | x2 x/ (3x/4x/4x/4 x x/ (3x/4x/4x/4 x | x4 .x3/4 x/4 x3/4 x/4 | x6 | %45
 x30 | x!8va(! x4!8va)! x | x x3/4!>(!x/8x/8 x2 x2!>)! | x6 | x6 | x6 | x3!8va(! x3 | x!8va)! x5 | %53
 x6 | x6 | x AG A,G, x | x6 | x6 | x6 | x6 |.x/4.x/4x/- x3 x2 | x6 | x6 | %63
 (7:4:7x/x/x/x/x/x/!trill)!x/ !///-!x3/2 !trill)!x3/2 (9:1:9=defgab=c'_d'e' | %64
 x2 x3/4!ff! x/4(5:4:5x/4x/4x/4x/4x/4 x2 | x2 x3/4!ff! x/4(5:4:5x/4x/4x/4x/4x/4 x2 | %66
 x4 x7/8!ff! x/16x/16 x7/8 x/16x/16 | x7/8 x/16x/16 x7/8 x/16x/16 x4 | %68
 x2 x3/4!ff! x/4(5:4:5x/4x/4x/4x/4x/4 x2 | x2 x3/4!ff! x/4(5:4:5x/4x/4x/4x/4x/4 x2!8va(! | %70
 x11/2!8va)! x/ | x6 | x2 (5:4:5x/4x/4x/4x/4x/4 x (5:4:5x/4x/4x/4x/4x/4 x | %73
 [DG][DG] x2 x/ !>!Az/4G/4 | x2 x/ (3x/4x/4x/4 x x/ (3x/4x/4x/4 x | x4 .x3/4 x/4 x3/4 x/4 | x6 | %77
 x30 | x!8va(! x4!8va)! x | x x3/4x/8x/8 x2 x2 || %80
[K:E] !arpeggio!x/ x3/2 !arpeggio!x/ x3/2 !arpeggio!x/ x3/2 | %81
 !arpeggio!x/ x3/2 !arpeggio!x/ x3/2 !arpeggio!x/ x3/2 | x6 | x6 | x6 | x6 | x6 | x6 | x6 | x6 | %90
 .[A,B,].[A,B,]/.[A,B,]/ .[A,B,] x x2 | G,>(C B,4) | x6 | x6 | x6 | x4 B>^A- | x6 | x6 | x6 | %99
 x[K:bass] !arpeggio!!>!x/4 x3/4 !arpeggio!!>!x/4 x3/4 !arpeggio!!>!x/4 x3/4 !arpeggio!!>!x/4 x3/4 !arpeggio!!>!x/4 x3/4 | %100
 x2[K:treble] !arpeggio!x/ x3/2 !arpeggio!x/ x3/2 | %101
 !arpeggio!x/ x3/2 !arpeggio!x/ x3/2 !arpeggio!x/ x3/2 | x6 | x6 | x6 | x6 | x6 | x6 | x6 | x6 | %110
 .[A,B,].[A,B,]/.[A,B,]/ .[A,B,] x x2 | G,>(C B,4) | x6 | x6 | x6 | x4 B>^A- | x6 | x6 | x6 | x || %120
[K:Ab] x5 | E.E/.E/ E.E/.E/ x2 | F.F/.F/ F.F/.F/ [C=E].[CE]/.[CE]/ | %123
 [CF].C/.C/ C.[C=D]/.[CD]/ [=B,D].[B,D]/.[B,D]/ | %124
 x/4x/4x/ x x/4x/4x/(x/ x/ !>![G,E]).[G,E]/.[G,E]/ | %125
 !>![FG].[FG]/.[FG]/ !>![FG].[FG]/.[FG]/ !>![=E_Bc].[EBc]/.[EBc]/ | %126
 !>![Ac].[Ac]/.[Ac]/ !>![FAc].[FAc]/.[FAc]/ !>![Bc].[Bc]/.[Bc]/ | %127
 !>![Ac].[Ac]/.[Ac]/ !>!A.[FA]/.[FA]/ .F.[=DF]/.[DF]/ | .[=B,=D][CE]/[=A,C]/ .[B,D][CE]/[A,C]/ x2 | %129
 x6 | x4 x/8x/8x/4 x3/2 | x6 | x6 | x6 | x4 x/8x/8x/4 x3/2 | x6 | %136
 (7:6:7x/4x/4x/4x/4x/4x/4!trill)!x/4x/4x/4 (7:6:7x/4x/4x/4x/4x/4x/4x/4!trill)!x/4x/4 (7:6:7x/4x/4x/4x/4x/4x/4x/4!trill)!x/4x/4 | %137
 x6 | x4 x/8x/8x/4 x3/2 | x6 | x6 | x6 | x4 x/8x/8x/4 x3/2 | x6 | x6 | x6 | x6 | x6 | x6 | x6 | %150
 x6 | x6 | x2 DC x2 |[K:bass]x2x>_G,x>_F, |x>E,x>D, C,B,, | %155
[K:treble] x2 x3/4!ff! x/4(5:4:5x/4x/4x/4x/4x/4 x2 | x2 x3/4!ff! x/4(5:4:5x/4x/4x/4x/4x/4 x2 | %157
 x4 x7/8!ff! x/16x/16 x7/8 x/16x/16 | x7/8 x/16x/16 x7/8 x/16x/16 x4 | %159
 x2 x3/4!ff! x/4(5:4:5x/4x/4x/4x/4x/4 x2 | x2 x3/4!ff! x/4(5:4:5x/4x/4x/4x/4x/4 x2!8va(! | %161
 x11/2!8va)! x/ | x6 | x2 (5:4:5x/4x/4x/4x/4x/4 x (5:4:5x/4x/4x/4x/4x/4 x | %164
 [DG][DG] x2 x/ !>!Az/4G/4 | x2 x/ (3x/4x/4x/4 x x/ (3x/4x/4x/4 x | x4 .x3/4!ff! x/4 x3/4 x/4 | %167
 x6 | x30 | x!8va(! x4!8va)! x | x6 | x5!8va(! x | x!8va)! x5 | x5!8va(! x | x!8va)! x5 | x6 | x6 | %177
 x6 | x9/2!8va(! x3/2 | x2!8va)! x4 | !arpeggio!x/ x/ x !arpeggio!x/ x/ x !arpeggio!x/ x/ x | x6 |] %182
V:4
 x6 | x6 | x6 | x6 | x6 | x6 | x6 | x6 | x6 | x6 | x6 | x6 | x6 | x6 | x6 | x6 | x6 | x6 | %18
 x4 x7/8 x/8 x7/8 x/8 | x7/8 x/8 x7/8 x/8 x4 | x6 | x6 | x6 | x4 [F,,F,]A, | x6 | x6 | x6 | %27
 x4[K:treble] x3/4 x/4 x7/8!8vb(! x/16x/16!8vb)! | %28
[K:bass] x7/8 x/16x/16 x7/8 x/16x/16 x7/8 x/8 x7/8 x/16x/16 x7/8 x/16x/16 x7/8 x/8 | %29
 x/8<x/8 x3/4 x4 x4 x2 x4 x8 | x6 | x6 | x6 | x6 | x4 x7/8 x/8 x7/8 x/8 | x7/8 x/8 x7/8 x/8 x4 | %36
 x6 | x6 | x[K:treble] [DEG][K:bass] .E,[K:treble][CE][K:bass] .E,[K:treble][B,E] | %39
[K:bass] .B,,[K:treble][A,B,=D][K:bass] .E,[K:treble][G,B,][K:bass] [F,,F,]A, | x6 | x6 | x6 | %43
 x4[K:treble] x7/8 x/16x/16 x/ x3/8!8vb(! x/16x/16!8vb)! | %44
[K:bass] x7/8 x/16x/16 x7/8 x/16x/16 x7/8 x/16x/16 x7/8 x/16x/16 x7/8 x/16x/16 x7/8 x/16x/16 | %45
 x30 | x3[K:treble] x3 | x[K:bass] x5 | x6 | x6 | x[K:treble] x5 | x[K:bass] x[K:treble] x4 | %52
 x[K:bass] x5 | x6 | x4[K:treble] x7/8 x/8 x | x[K:bass] x5 | x6 | %57
 [C,,C,][=E,G,]/[E,G,]/ [E,G,][E,G,] [B,,,B,,][F,A,] | %58
 [C,,C,][=E,G,]/[E,G,]/ [E,G,][E,G,] [B,,,B,,][F,A,] | %59
 [C,,C,][G,B,C]/[G,B,C]/ [G,B,C][G,B,C] [F,,F,][A,C] | x6 | x6 | x6 | x161/40[K:treble] x2 | %64
[K:bass] x6 | x6 | x4 x7/8 x/8 x7/8 x/8 | x7/8 x/8 x7/8 x/8 x4 | x6 | x6 | %70
 x[K:treble] [DEG][K:bass] .E,[K:treble][CE][K:bass] .E,[K:treble][B,E] | %71
[K:bass] .B,,[K:treble][A,B,=D][K:bass] .E,[K:treble][G,B,][K:bass] [F,,F,]A, | x6 | x6 | x6 | %75
 x4[K:treble] x3/4 x/4 x/ x/4!8vb(! x/8x/8!8vb)! | %76
[K:bass] x7/8 x/16x/16 x7/8 x/16x/16 x7/8 x/16x/16 x7/8 x/16x/16 x7/8 x/16x/16 x7/8 x/16x/16 | %77
 x30 | x3[K:treble] x3 | x[K:bass] x5 || %80
[K:E] !arpeggio!!>!x/ x3/2 !arpeggio!!>!x/ x3/2 !arpeggio!!>!x/ x3/2 | %81
 !arpeggio!!>!x/ x3/2 !arpeggio!!>!x/ x3/2 !arpeggio!!>!x/ x3/2 | x6 | x6 | x6 | x6 | x6 | x6 | %88
 x6 | x6 | x6 | x6 | x6 | x6 | x6 | x6 | x6 | x6 | x6 | %99
 x !arpeggio!x/4 x3/4 !arpeggio!x/4 x3/4 !arpeggio!x/4 x3/4 !arpeggio!x/4 x3/4 !arpeggio!x/4 x3/4 | %100
 x2 !arpeggio!!>!x/ x3/2 !arpeggio!!>!x/ x3/2 | %101
 !arpeggio!!>!x/ x3/2 !arpeggio!!>!x/ x3/2 !arpeggio!!>!x/ x3/2 | x6 | x6 | x6 | x6 | x6 | x6 | %108
 x6 | x6 | x6 | x6 | x6 | x6 | x6 | x6 | x6 | x6 | x6 | x ||[K:Ab] x5 | x6 | x6 | x6 | x6 | x6 | %126
 x6 | x6 | x6 | x6 | x6 | x6 | x6 | x6 | x6 | x6 | x6 | x6 | x6 | x6 | x6 | x6 | x6 | x6 | x6 | %145
 x6 | x6 | x6 | x6 | x6 | x6 | x6 | x2 D,C, x2 |[K:bass]x2x>_G,,x>_F,, |x>E,,x>D,, C,,B,,, | %155
[K:bass] x6 | x6 | x4 x7/8 x/8 x7/8 x/8 | x7/8 x/8 x7/8 x/8 x4 | x6 | x6 | %161
 x[K:treble] [DEG][K:bass] .E,[K:treble][CE][K:bass] .E,[K:treble][B,E] | %162
[K:bass] .B,,[K:treble][A,B,=D][K:bass] .E,[K:treble][G,B,][K:bass] [F,,F,]A, | x6 | x6 | x6 | %166
 x4[K:treble] x3/4 x/8x/8 x/ x3/8!8vb(! x/16x/16!8vb)! | %167
[K:bass] x7/8 x/16x/16 x7/8 x/16x/16 x7/8 x/16x/16 x7/8 x/16x/16 x7/8 x/16x/16 x7/8 x/16x/16 | %168
 x30 | x3[K:treble] x3 | x3[K:bass] x3 | x6 | x[K:treble] x5 |[K:bass] x6 | x[K:treble] x5 | %175
[K:bass] x4[K:treble] x2 |[K:bass] x4[K:treble] x2 |[K:bass] x6 | x6 | x6 | %180
 !arpeggio!!>!x/ x/ x !arpeggio!!>!x/ x/ x !arpeggio!x/ x/ x | x6 |] %182
V:5
 x6 | x6 | x6 | x6 | x6 | x6 | x6 | x6 | x6 | x6 | x6 | x6 | x6 | x6 | x6 | x6 | x6 | x6 | x6 | %19
 x6 | x6 | x6 | x6 | x6 | x6 | x6 | x6 | x[K:treble] x39/8!8vb(!!8vb)! |[K:bass] x6 | x23 | x6 | %31
 x6 | x6 | x6 | x6 | x6 | x6 | x6 | x[K:treble] x[K:bass] x[K:treble] x[K:bass] x[K:treble] x | %39
[K:bass] x[K:treble] x[K:bass] x[K:treble] x[K:bass] F,2 | x6 | x6 | x6 | %43
 x[K:treble] x39/8!8vb(!!8vb)! |[K:bass] x6 | x30 | x3[K:treble] x3 | x[K:bass] x5 | x6 | x6 | %50
 x[K:treble] x5 | x[K:bass] x[K:treble] x4 | x[K:bass] x5 | x6 | x[K:treble] x5 | x[K:bass] x5 | %56
 x6 | x6 | x6 | x6 | x6 | x6 | x6 | x161/40[K:treble] x2 |[K:bass] x6 | x6 | x6 | x6 | x6 | x6 | %70
 x[K:treble] x[K:bass] x[K:treble] x[K:bass] x[K:treble] x | %71
[K:bass] x[K:treble] x[K:bass] x[K:treble] x[K:bass] F,2 | x6 | x6 | x6 | %75
 x[K:treble] x19/4!8vb(! x/4!8vb)! |[K:bass] x6 | x30 | x3[K:treble] x3 | x[K:bass] x5 ||[K:E] x6 | %81
 x6 | x6 | x6 | x6 | x6 | x6 | x6 | x6 | x6 | x6 | x6 | x6 | x6 | x6 | x6 | x6 | x6 | x6 | x6 | %100
 x6 | x6 | x6 | x6 | x6 | x6 | x6 | x6 | x6 | x6 | x6 | x6 | x6 | x6 | x6 | x6 | x6 | x6 | x6 | %119
 x ||[K:Ab] x5 | x6 | x6 | x6 | x6 | x6 | x6 | x6 | x6 | x6 | x6 | x6 | x6 | x6 | x6 | x6 | x6 | %137
 x6 | x6 | x6 | x6 | x6 | x6 | x6 | x6 | x6 | x6 | x6 | x6 | x6 | x6 | x6 | x6 |[K:bass] x6 | x6 | %155
[K:bass] x6 | x6 | x6 | x6 | x6 | x6 | x[K:treble] x[K:bass] x[K:treble] x[K:bass] x[K:treble] x | %162
[K:bass] x[K:treble] x[K:bass] x[K:treble] x[K:bass] F,2 | x6 | x6 | x6 | %166
 x[K:treble] x39/8!8vb(!!8vb)! |[K:bass] x6 | x30 | x3[K:treble] x3 | x3[K:bass] x3 | x6 | %172
 x[K:treble] x5 |[K:bass] x6 | x[K:treble] x5 |[K:bass] x4[K:treble] x2 |[K:bass] x4[K:treble] x2 | %177
[K:bass] x6 | x6 | x6 | x6 | x6 |] %182

